X:10
T:Jenny Lind Polka
T:Brimfield
C:Anton Wallerstein (1846)
M:4/4
L:1/8
Q:150
O:English Reel
A:Brimfield
K:D
P:A
F2 A2 G2 B2 | A2 f2 fe f2 | G2 e2 ed e2 | F2 d2 d4 |!
F2 A2 G2 B2 | A2 f2 fe f2 | g2 e2 eg fe | d2 f2 d4 :||!
K:G
P:B
|:g2 f2 ef ge | d2 B2 BA B2 | c2 A2 AG A2 | B2 G2 G4 |!
g2 f2 ef ge | d2 B2 BA B2 | c2 A2 Ac BA | G2 B2 G4 :||
